X:1
T:Atlantic Telegraph March and Quick-Step
T:Atlantic Telegraph March and Quick-Step
T:Anonymous
T:(Quick-Step) is based on Radetzky March, Op.228, by Johann Strauss Sr.
T:Atlantic Telegraph Quick-Step
T:by IMSLP - Public Domain
T:by IMSLP - Public Domain
T:by IMSLP - Public Domain
T:by IMSLP - Public Domain
T:by IMSLP - Public Domain
T:by IMSLP - Public Domain
C:Anonymous
Z:by IMSLP - Public Domain
%%score { 1 | 2 }
L:1/8
Q:1/4=83
M:4/4
K:Bb
V:1 treble nm="Piano" snm="Pno."
V:2 bass 
V:1
!mf!"^Tempo di Marcia" [DFB]2 [DFB]>[EGB] [DFB]2 [DFB]2 | !>![CEB]2 !>![CEA]>[EGB] !>![EFc]4 | %2
!f! [EFc]2 !>![EFc]>[EFc] [EFc]2"_cresc." [EFc]2 | !>![DFc]2 [DFB]>[DFc] !>![DFd]4 | %4
!ff!!ped! [D^FAd]2 [DFAd]>[DFAd] [DFAd]2 [DFAd]2!ped-up! | !>![GBdg]4 !>![GBc=e]4 | %6
 !>![FAcf]6 [GBc=e]>[GBce] |1!ped! [FAcf]2 [FAcf]>[FAcf] [FAcf]2 z2!ped-up! :|2 %8
 [FAcf]2 [FAcf]>[FAcf] [FAcf]2 z2 |:!mf! [A^ca]2 [Aca]>[Aca] [Acg]2 [Acg]>[Acg] | %10
 [Adf]2 [Adf]>[Ac=e] [Adf]4 |!f! [FAf]2 [FAf]>[FAf] [FAce]2 [FAce]>[FAce] | %12
 [FBd]2 [FBd]>[Fc] [DB]4 | .c.c/.c/ .c.c .c(bag) | %14
!ped!!<(! .f(.F/.A/) .c2 .c(.A/.c/) .f2!ped-up!!<)! |!p! .c!<(!.c/.c/ .c.c .c(bag)!<)! | %16
!mf! f>ca>g f4 :|!ped! B3!ped-up! (F/d/)!ped! c3 (F/!ped-up!e/) | %18
!ped! d>fb>!ped-up!g!ped! f>ec>d!ped-up! | B>d"_cresc."f>=e g>fd>B |!f!{/d} c>Bc>d c2 F2 | %21
!ped! B3!ped-up! (F/d/)!ped! c3 (F/!ped-up!e/) |!ped! d>fb>!ped-up!g!ped! f>ec>d!ped-up! | %23
 B>df>g f>ec>d | (c4 B2) z2 | !>!g>eB>e !>!g2 a>g | !>!f>dB>d !>!f>fg>f | !>!e>cA>c !>!B>AB>d | %28
 f4- f4 |!ped! B3!ped-up! (F/d/)!ped! c3 (F/!ped-up!e/) |!ped! d>fb>!ped-up!g!ped! f>ec>d!ped-up! | %31
 B>df>g f>ec>d | (c4 B2) z2 |!ff! d3 (^F/A/ d3) (G/B/ |{/e} !>!d>)^c!>!d>e !>!d2 z3/2 f/ | %35
!ff! f3 (A/c/ f3) (B/_d/ |{/g)} !>!f>=e!>!f>g !>!f2 z2 | %37
!ped! B3!ped-up! (F/d/)!ped! c3 (F/!ped-up!e/) |!ped! d>fb>!ped-up!g!ped! f>ec>d!ped-up! | %39
 B>d"_cresc."f>=e g>fd>B |!f!{/d} c>Bc>d c2 F2 |!ped! B3!ped-up! F/d/!ped! c3 F/!ped-up!e/ | %42
!ped! d>fb>!ped-up!g!ped! f>ec>d!ped-up! | B>df>g f>ec>d | (c4 B2) z2!fine! |] %45
[K:Eb][Q:1/4=80]"^Trio." B2- (3(Bcd)"_cresc." e2- (3(ef!<(!g) | b2-!<)! (3(b!>(!ag) f2- (3(fec) | %47
 B2-!>)!!<(! (3(B=AB) d2-!<)!!>(! (3(dcF)!>)! |!>(! c2- (3(cBG) E2!>)! !>![DFAB]2 | %49
 !>!B2-!<(! (3Bcd e2- (3efg | b2-!<)!!>(! (3bag f2- (3fec!>)! | B2- (3B=AB (d2 (3c)AF | %52
 E2 .B/.B/.B/.B/ B2 [FABd]2 | [EGBe]2 .B/.B/.B/.B/ B2 !>![FABd]2 | %54
 [EGBe]2 z3/2!ff! [egbe']/ [egbe']2 z3/2 [EGBe]/ | [EGBe]4"^D.C.M.\nal Fine" z4!D.C.! |] %56
[K:D][M:2/4]!f![Q:1/4=85]{/g} f/>^e/ | !wedge!f{/g}f/>^e/ !wedge!f{/g}f/>e/ | %58
 !wedge!f!wedge!=e!wedge!d{/g} f/>^e/ | !wedge!f{/g}f/>^e/ !wedge!ff/>e/ | %60
 !wedge!f!wedge!b!wedge!a a/>f/ | !wedge!f!wedge!b!wedge!a a/>e/ | !wedge!f!wedge!b!wedge!a a/>f/ | %63
 e (c'2 b) | a(a/^g/) (a/b/a/=g/) | !wedge!f{/g}f/>^e/ !wedge!f{/g}f/>e/ | %66
 !wedge!f!wedge!=e!wedge!d{/g} f/>^e/ | f{/g}f/>^e/ f{/g}f/>e/ | fba a/>f/ | ^gf' !>!e'2 | %70
 fe' !>!d'2 | c'>(b a/g/f/e/) | dfd |]!f!{/e} d/>c/ | d{/e}d/>c/ d{/e}d/>c/ | dgB{/e} d/>c/ | %76
 d{/e}d/>c/ d{/e}d/>c/ |!>(! (a2 g)!>)! A/>b/ |!>(! (b2 a)!>)! a/>d'/ | c'c'/>b/ ag | bb/>a/ gf | %81
!>(! (a2 g)!>)! A/>b/ |!>(! (b2 a)!>)! a/>d'/ | d'b/>d'/ c'b/>d'/ | c'f'/>f'/ f'{/g} f/>^e/ | %85
 !wedge!f{/g}f/>^e/ !wedge!f{/g}f/>e/ | !wedge!f!wedge!=e!wedge!d{/g} f/>^e/ | %87
 !wedge!f{/g}f/>^e/ !wedge!f{/g}f/>e/ | !wedge!f!wedge!b!wedge!a a/>f/ | ^gf' e'2 | fe' d'2 | %91
 c'>b (a/g/f/e/) | dfd z |][K:A] (E/c/).c/.c/ .c z | (E/c/).c/.c/ .c.d | (e/a/c') .c'.c' | %96
 Tc3 (B/c/) | (d/g/) b2 a | (g/f/)f ff | (e/a/c') .c'.c' | c3 z | (E/c/).c/.c/ .c z | %102
 (E/c/).c/.c/ .c.d | (e/a/c') .c'.c' | c3 (B/c/) | (d/g/) b2 a | (Tg/f/)f ff | (e/a/c') (e/g/b) | %108
 ac'a |] (G/A/) | (B/d/) g2 f | Tfddd | (c/e/a) aa | TA3 (G/A/) | (B/d/ g2) f | Tfddd | %116
 (c/e/a/c'/) e'(d'/c'/ | b/a/g/f/ e/d/c/B/) | (E/c/).c/.c/ .c z | (E/c/).c/.c/ .cd | (c/e/a) .a.a | %121
 Tc3 (B/c/) | (d/g/) b2 a | Tgfff | (e/a/c') (d/g/b) | ac'a |][K:D]!f!{/g} f/>^e/ | %127
 !wedge!f{/g}f/>^e/ !wedge!f{/g}f/>e/ | !wedge!f!wedge!=e!wedge!d{/g} f/>^e/ | %129
 !wedge!f{/g}f/>^e/ !wedge!f{/g}f/>e/ | !wedge!f!wedge!b!wedge!a a/>f/ | %131
 !wedge!f!wedge!b!wedge!a a/>e/ | !wedge!f!wedge!b!wedge!a a/>f/ | e (c'2 b) | %134
 a(a/^g/) (a/b/a/=g/) | !wedge!f{/g}f/>^e/ !wedge!f{/g}f/>e/ | %136
 !wedge!f!wedge!=e!wedge!d{/g} f/>^e/ | f{/g}f/>^e/ f{/g}f/>e/ | !wedge!f!wedge!b!wedge!a a/>f/ | %139
 ^gf' !>!e'2 | fe' !>!d'2 | c'>(b a/g/f/e/) | dfd |]!f!{/e} d/>c/ | %144
 !wedge!d{/e}d/>c/ !wedge!d{/e}d/>c/ | !wedge!d!wedge!g!wedge!B{/e} d/>c/ | %146
 !wedge!d{/e}d/>c/ !wedge!d{/e}d/>c/ | dfA A/>a/ | (a2 g) A/>a/ | (b2 a) a/>d'/ | c'c'/>b/ ag | %151
 bb/>a/ gf | (a2 g) A/>b/ | (b2 a) a/>d'/ | c'b/>d'/ c'b/>d'/ | c'f'/>f'/ f'{/g}f/>^e/ | %156
 !wedge!f{/g}f/>^e/ !wedge!f{/g}f/>e/ | !wedge!f!wedge!=e!wedge!d{/g} f/>^e/ | %158
 !wedge!f{/g}f/>^e/ !wedge!ff/>e/ | !wedge!f!wedge!b!wedge!a a/>f/ | ^gf' !>!e'2 | fe' !>!d'2 | %162
 c'>(b a/g/f/e/) | dfd z |] %164
V:2
 [B,,B,]2 [B,,B,]>[B,,B,] [B,,B,]2 [B,,B,]2 | [F,,F,]2 [F,,F,]>[F,,F,] [F,,F,]4 | %2
 [F,,F,]2 [F,,F,]>[F,,F,] [F,,F,]2 [F,,F,]2 | [B,,B,]2 [B,,B,]>[B,,B,] [B,,B,]4 | %4
 [D,,D,]2 [D,,D,]>[D,,D,] [D,,D,]2 [D,,D,]2 | [G,,G,]4 [C,,C,]4 | %6
 .[F,,F,]2 .[A,,A,]>.[B,,B,] .[C,C]2 .[C,,C,]2 |1 %7
 [F,,F,]2 [F,,F,]>[F,,F,] (.[F,,F,].[E,,E,].[D,,D,].[C,,C,]) :|2 %8
 [F,,F,]2 [F,,F,]>[F,,F,] [F,,F,]2 z2 |: [A,^C=E]2 [A,CE]>[A,CE] [A,CE]2 [A,CE]>[A,CE] | %10
 [A,DF]2 [A,DF]>[A,C=E] [A,DF]4 | [F,,F,]2 [F,,F,]>[F,,F,] [A,,A,]2 [A,,A,]>[F,,F,] | %12
 [B,,B,]2 [B,,B,]>[B,,B,] [B,,B,]4 |"^dolce." =E,[G,B,C]C,[G,B,C] E,[G,B,C]C,[G,B,C] | %14
 F,[A,C]C,[A,C] F,[A,C]C,[A,C] | =E,[G,B,C]C,[G,B,C] E,[G,B,C]C,[G,B,C] | %16
 [F,A,C]2 [=E,B,C]2 [F,A,C]4 :| [B,,B,]2 [F,B,D]2 [F,,F,]2 [F,A,CE]2 | %18
 [B,,B,]2 [F,B,D]2 [F,,F,]2 [F,A,CE]2 | [B,,B,]2 [F,B,D]2 [B,,B,]2 [F,B,D]2 | %20
 [F,,F,]2 [F,A,E]2 [F,A,E]2 [F,A,E]2 | [B,,B,]2 [F,B,D]2 [F,,F,]2 [F,A,CE]2 | %22
 [B,,B,]2 [F,B,D]2 [F,,F,]2 [F,A,CE]2 | [B,,B,]2 [F,B,D]2 [B,,B,]2 [F,B,D]2 | %24
 [F,,F,]2 [F,A,E]2 [B,D]2 z2 | [E,,F,]2 [G,B,E]2 [E,,E,]2 [G,B,E]2 | %26
 [B,,B,]2 [F,B,D]2 [F,B,D]2 [F,B,D]2 | [F,,F,]2 [F,CE]2 [B,,B,]2 [F,B,D]2 | %28
 [F,,F,]2 [A,CE]2 [A,,A,]2 [A,CEF]2 | [B,,B,]2 [F,B,D]2 [F,,F,]2 [F,A,CE]2 | %30
 [B,,B,]2 [F,B,D]2 [F,,F,]2 [F,A,CE]2 | [B,,B,]2 [F,B,D]2 [B,,B,]2 [F,B,D]2 | %32
 [F,,F,]2 [F,A,E]2 [B,D]2 z2 | [D,^F,A,][D,F,A,][D,F,A,] z [D,G,B,][D,G,B,][D,G,B,] z | %34
 [D,^F,A,]2 [D,F,A,]2 [D,F,A,]2 z2 | [F,A,C][F,A,C][F,A,C] z [F,B,_D][F,B,D][F,B,D] z | %36
 [F,A,C]2 [F,A,C]2 [F,A,C]2 z2 | [B,,B,]2 [F,B,D]2 [F,,F,]2 [F,A,CE]2 | %38
 [B,,B,]2 [F,B,D]2 [F,,F,]2 [F,A,CE]2 | [B,,B,]2 [F,B,D]2 [B,,B,]2 [F,B,D]2 | %40
 [F,,F,]2 [F,A,E]2 [F,A,E]2 [F,A,E]2 | [B,,B,]2 [F,B,D]2 [F,,F,]2 [F,A,CE]2 | %42
 [B,,B,]2 [F,B,D]2 [F,,F,]2 [F,A,CE]2 | [B,,B,]2 [F,B,D]2 [B,,B,]2 [F,B,E]2 | %44
 [F,,F,]2 [F,A,E]2 [B,D]2 z2 |][K:Eb]"^dolce." [E,G,B,]2 [E,G,B,]2 [E,G,B,]2 [E,G,B,]2 | %46
 [A,,C,F,]2 [A,,C,F,]2 [=A,,C,F,]2 [A,,C,F,]2 | [A,,C,F,]2 [A,,C,F,]2 [A,,C,F,]2 [A,,C,F,]2 | %48
 [E,G,B,]2 [E,G,B,]2 [E,G,B,]2 [B,,B,]2 | [E,G,B,]2 [E,G,B,]2 [E,G,B,]2 [E,G,B,]2 | %50
 [A,,C,F,]2 [A,,C,F,]2 [=A,,C,F,]2 [A,,C,F,]2 | [B,,D,F,]2 [B,,D,F,]2 [B,,D,A,]2 [B,,D,F,A,]2 | %52
 [E,G,]2 z2 z2 !>![B,,B,]2 | !>![E,B,]2 z2 z2 !>![B,,B,]2 | %54
 !>![E,B,]2 z3/2 [E,E]/ [E,E]2 z3/2 [E,,E,]/ | [E,,E,]4 z4 |][K:D][M:2/4] z | %57
 D,[F,A,][F,A,][F,A,] | D,[F,A,][F,A,][F,A,] | D,[F,A,][F,A,][F,A,] | D,[F,A,][F,A,][F,A,] | %61
 C,[E,A,][E,A,][E,A,] | C,[F,A,][F,A,][F,A,] | E,[A,C] E,[^G,D] | [A,C] z z2 | %65
 D,[F,A,][F,A,][F,A,] | D,[F,A,][F,A,][F,A,] | D,[F,A,][F,A,][F,A,] | D,[F,A,][F,A,][F,A,] | %69
 E,[^G,D] A,,[E,A,C] | D,[F,A,D] A,,[F,A,D] | G,,[B,,E,G,] A,,[C,E,G,] | [D,F,][D,F,][D,F,] |] z | %74
 D,[F,A,] D,[F,A,] | D,[F,A,] D,[F,A,] | D,[F,A,][F,A,][F,A,] | A,,[C,E,A,][C,E,A,][C,E,A,] | %78
 D,[F,A,][F,A,][F,A,] | A,,[C,E,A,][C,E,A,][C,E,A,] | D,[F,A,][F,A,][F,A,] | %81
 A,,[C,E,A,][C,E,A,][C,E,A,] | D,[F,A,][F,A,][F,A,] | [F,^A,][F,B,] [F,A,][F,B,] | %84
 [F,^A,][F,,F,][F,,F,] z | D,[F,A,][F,A,][F,A,] | D,[F,A,][F,A,][F,A,] | D,[F,A,][F,A,][F,A,] | %88
 D,[F,A,][F,A,][F,A,] | E,[^G,D] A,,[E,A,C] | D,[F,A,D] D,[F,A,D] | G,[B,D] A,[CE] | %92
 [D,F,][D,F,][D,F,] z |][K:A] A,,[C,E,A,][C,E,A,][C,E,A,] | A,,[C,E,A,][C,E,A,][C,E,A,] | %95
 A,,[C,E,A,][C,E,A,][C,E,A,] | A,,[C,E,A,][C,E,A,][C,E,A,] | E,[G,B,][G,B,][G,B,] | %98
 E,[G,B,][G,B,][G,B,] | A,,[C,E,A,][C,E,A,][C,E,A,] | A,,[C,E,A,][C,E,A,][C,E,A,] | %101
 A,,[C,E,A,][C,E,A,][C,E,A,] | A,,[C,E,A,][C,E,A,][C,E,A,] | A,,[C,E,A,][C,E,A,][C,E,A,] | %104
 A,,[C,E,A,][C,E,A,][C,E,A,] | E,[G,B,][G,B,][G,B,] | E,[G,B,][G,B,][G,B,] | E,[A,C] E,[G,D] | %108
 [A,C][A,C][A,C] |] z | E,[G,B,][G,B,][G,B,] | E,[G,B,][G,B,][G,B,] | E,[A,C][A,C][A,C] | %113
 E,[A,C][A,C][A,C] | E,[G,B,][G,B,][G,B,] | E,[G,B,][G,B,][G,B,] | A,,[E,A,C][E,A,C][E,A,C] | %117
 [E,G,B,] z z2 | A,,[C,E,][C,E,][C,E,] | A,,[C,E,][C,E,][C,E,] | A,,[C,E,A,][C,E,A,][C,E,A,] | %121
 A,,[C,E,A,][C,E,A,][C,E,A,] | E,[G,B,][G,B,][G,B,] | E,[G,B,][G,B,][G,B,] | E,[A,C] E,[G,D] | %125
 [A,C][A,C] [A,C] |][K:D] z | D,[F,A,][F,A,][F,A,] | D,[F,A,][F,A,][F,A,] | D,[F,A,][F,A,][F,A,] | %130
 D,[F,A,][F,A,][F,A,] | C,[E,A,][E,A,][E,A,] | C,[F,A,][F,A,][F,A,] | E,[A,C] E,[G,D] | %134
 [A,C] z z2 | D,[F,A,][F,A,][F,A,] | D,[F,A,][F,A,][F,A,] | D,[F,A,][F,A,][F,A,] | %138
 D,[F,A,][F,A,][F,A,] | E,[^G,D] A,,[E,A,C] | D,[F,A,D] A,,[F,A,D] | G,,[B,,E,G,] A,,[C,E,G,] | %142
 [D,F,][D,F,][D,F,] |] z | D,[G,B,] D,[G,B,] | D,[G,B,] D,[G,B,] | D,[F,A,][F,A,][F,A,] | %147
 D,[F,A,][F,A,][F,A,] | A,,[C,E,A,][C,E,A,][C,E,A,] | D,[F,A,][F,A,][F,A,] | %150
 A,,[C,E,A,][C,E,A,][C,E,A,] | D,[F,A,][F,A,][F,A,] | A,,[C,E,A,][C,E,A,][C,E,A,] | %153
 D,[F,A,][F,A,][F,A,] | [F,^A,][F,B,] [F,A,][F,B,] | [F,^A,][F,,F,][F,,F,] z | %156
 D,[F,A,][F,A,][F,A,] | D,[F,A,][F,A,][F,A,] | D,[F,A,][F,A,][F,A,] | D,[F,A,][F,A,][F,A,] | %160
 E,[^G,D] A,,[E,A,C] | D,[F,A,D] A,,[F,A,D] | G,,[B,,E,G,] A,,[C,E,G,] | [D,F,][D,F,][D,F,] z |] %164

